icon/fa/crop-simple.svg

<svg xmlns="http://www.w3.org/2000/svg" viewBox="0 0 512 512"><!--! Font Awesome Free 6.1.2 by @fontawesome - https://fontawesome.com License - https://fontawesome.com/license/free (Icons: CC BY 4.0, Fonts: SIL OFL 1.1, Code: MIT License) Copyright 2022 Fonticons, Inc.--><path d="M128 384h224v64H128c-35.35 0-64-28.7-64-64V128H32c-17.67 0-32-14.3-32-32 0-17.67 14.33-32 32-32h32V32C64 14.33 78.33 0 96 0c17.7 0 32 14.33 32 32v352zm256-256H160V64h224c35.3 0 64 28.65 64 64v256h32c17.7 0 32 14.3 32 32s-14.3 32-32 32h-32v32c0 17.7-14.3 32-32 32s-32-14.3-32-32V128z"/></svg>

<svg xmlns="http://www.w3.org/2000/svg" viewBox="0 0 512 512" height="1em" width="1em">
<!--! Font Awesome Free 6.1.2 by @fontawesome - https://fontawesome.com License - https://fontawesome.com/license/free (Icons: CC BY 4.0, Fonts: SIL OFL 1.1, Code: MIT License) Copyright 2022 Fonticons, Inc.-->
  <path d="M128 384H352V448H128C92.65 448 64 419.3 64 384V128H32C14.33 128 0 113.7 0 96C0 78.33 14.33 64 32 64H64V32C64 14.33 78.33 0 96 0C113.7 0 128 14.33 128 32V384zM384 128H160V64H384C419.3 64 448 92.65 448 128V384H480C497.7 384 512 398.3 512 416C512 433.7 497.7 448 480 448H448V480C448 497.7 433.7 512 416 512C398.3 512 384 497.7 384 480V128z"/>
</svg>
